X:227
T:Ski Doo
S:The Barra MacNeils - The Traditional Album
Z:robin.beech@mcgill.ca
R:reel
M:4/4
L:1/8
K:Em
GEEE G2AB | GEEE B2AG | FdAF D2A,G, | A,FED E2EF |
GEEE B2AB | GBef gfed | ABde f3g | fedB AGFA |
GEEE GBAB | GBAB GBAG | FdAF D2A,G, | A,FED E2EF |
GEEE B2AB | GBef gfed | ABde f3g | fedB Adef |:
geee Bede | geBB c2dc | BEGA BEGA | BEGA Bcdf |
eeed ebba |gefd e2AB | cAAA BGGG | AFGF Edef :|
